X: 36157
T: Scotch Nancy
R: jig
M: 6/8
K: Dmajor
M:12/8
|:G|Adc d2e !trill!f2 e d2 B|=c2 B c2 d e^cA A2 G|
Adc dge !trill!f2 e d2 B|=c2 A G2 E DED D2:|
|:A|FED EFG A2 B =c2 B|=c2 B c2 d e^cA ABG|
FED EFG A2 B =c2 d|=c2 A G2 E DED D2:|

